X: 23392
T: Lente In Laren
R: barndance
M: 4/4
K: Dmajor
e|:"D"fdfg "D/C#"ea2e|"Bm7"cdad "Bm7/A"cdcA|"Gmaj7"Bcde fGAB|cdef "A"ecag|
"D"f2ed "D/C#"ea2e|"Bm7"cdad "Bm7/A"cdcA|"Gmaj7"Bcde fGAB|"A"cA c<d- "D"dcFA:|
"Bm"BbBa BgBf|"Asus4"e2ed fe2d|"D/F#"cd A2- Adef|fe d/e/f "A"e2dc|
"Bm"BbBa BgBf|"Asus4"e2ed fe2d|"D/F#"cdAB cdec|1 "A"cA c<d- "D"dcFA:|2 "A"cA c<d- "D"dcde||

